!!!OTL: Wesoly nam w.n. ten tho dzien - I
**kern
*staff1
=1-
*clefF3
*k[]
*M3/1
0A
1E
=2
0A
1E
=3
0A
1G
=4
0A
1E
=5
0C
1C
=6
1D
1F
1E
=7
0.AA;
!!linebreak:original
=8:|!
0C
1G
=9
0C
1G
=10
0c
1B
=11
0A
1G
=12
0C
1C
=13
1D
1F
1E
=14
!LO:TX:Y=-45:t=P
0.AA
=15
!!linebreak:original
0C
1G
=16
0C
1G
=17
0c
1B
=18
0A
1G
=19
0C
1C
=20
1D
1F
1E
=21
0.AA
==
*-
!!title: @{OTL}, @{GTL}, ed. @{ENC}
!!!pag:
!!!GTL: Hymnbook D
!!!EFL: 
!!!YEM: Creative Commons CC/BY/NC/SA 4.0
!!!ENC: Marcin Konik
!!!END: 2015-0m-dd
!!!EED: Marcin Konik
!!!EEV: 
!!!ONB: Encoded in vim by Marcin Konik
!!!CharacterEncoding: utf-8
!!!RDF**kern: l=long note in original notation
!!!RDF**kern: i=editorial accidental
!!muse2ps: z14jc180F
!!!COM: Anonim
!!!CDT: [?]
!!!TXO: Polish
!!!ODT: 
!!!GTL: Hymnbook D
!!!ARL: Opactwo św. Wojciecha, Staniątki 
!!!voices:	1
